layout/main/dist/assets/main/img/logo.svg

<svg width="204" height="93" viewBox="0 0 204 93" fill="none" xmlns="http://www.w3.org/2000/svg">
<g clip-path="url(#clip0)">
<path d="M100.66 72.1334V22.044H111.611C117.335 22.044 121.975 26.684 121.975 32.4078V61.7696C121.975 67.4934 117.335 72.1334 111.611 72.1334H100.66Z" fill="#FC466B" stroke="#FC466B"/>
<path d="M3.50522 46.3689L3.50541 46.3574L3.50542 46.3459C3.52904 21.6599 25.1217 1.4724 51.9942 1.47208C65.1709 1.47208 77.1009 6.33672 85.8262 14.2123L86.8312 13.0988L85.8262 14.2123C90.9908 18.8737 95.4475 22.2524 102.5 22.8931V71.0911C99.4467 71.3705 96.8087 71.9015 94.3215 72.8965C91.4531 74.044 88.871 75.7739 86.1118 78.3029L86.1113 78.3033C77.3592 86.3321 65.3105 91.3026 51.9942 91.3026H51.9814L51.9686 91.3028C25.8596 91.7487 3.10498 70.894 3.50522 46.3689Z" stroke="url(#paint0_linear)" stroke-width="3"/>
<path d="M75.3561 72.4935C72.9132 72.4935 70.7365 71.9454 68.826 70.8492C66.9469 69.7217 65.4592 68.2184 64.363 66.3393C63.2982 64.4288 62.7657 62.2991 62.7657 59.9501C62.7657 57.6012 63.2982 55.4871 64.363 53.608C65.4592 51.6975 66.9469 50.1942 68.826 49.098C70.7365 47.9705 72.9132 47.4068 75.3561 47.4068C77.799 47.4068 79.96 47.9705 81.8391 49.098C83.7496 50.1942 85.2373 51.6975 86.3021 53.608C87.3983 55.4871 87.9464 57.6012 87.9464 59.9501C87.9464 62.2991 87.3983 64.4288 86.3021 66.3393C85.2373 68.2184 83.7496 69.7217 81.8391 70.8492C79.96 71.9454 77.799 72.4935 75.3561 72.4935ZM75.3561 68.7821C77.016 68.7821 78.4567 68.3907 79.6781 67.6077C80.8996 66.8247 81.8548 65.7755 82.5438 64.4601C83.2329 63.1134 83.5774 61.6101 83.5774 59.9501C83.5774 58.2902 83.2329 56.8025 82.5438 55.4871C81.8548 54.1404 80.8996 53.0756 79.6781 52.2926C78.4567 51.5096 77.016 51.1181 75.3561 51.1181C73.7275 51.1181 72.2868 51.5096 71.034 52.2926C69.8126 53.0756 68.8573 54.1404 68.1683 55.4871C67.4793 56.8025 67.1348 58.2902 67.1348 59.9501C67.1348 61.6101 67.4793 63.1134 68.1683 64.4601C68.8573 65.7755 69.8126 66.8247 71.034 67.6077C72.2868 68.3907 73.7275 68.7821 75.3561 68.7821Z" fill="white"/>
<path d="M91.1399 71.9297V37.6352H95.4619V71.9297H91.1399Z" fill="white"/>
<path d="M111.213 72.4935C109.021 72.4935 107.079 72.055 105.388 71.1781C103.728 70.2698 102.412 69.017 101.441 67.4198C100.471 65.8225 99.9851 63.959 99.9851 61.8293V47.9705H104.307V61.7823C104.307 63.223 104.62 64.4758 105.247 65.5406C105.904 66.5741 106.75 67.3728 107.784 67.9365C108.848 68.5003 109.976 68.7821 111.166 68.7821C112.387 68.7821 113.515 68.5003 114.549 67.9365C115.613 67.3728 116.459 66.5741 117.085 65.5406C117.743 64.4758 118.072 63.223 118.072 61.7823V47.9705H122.394V61.8293C122.394 63.959 121.909 65.8225 120.938 67.4198C119.998 69.017 118.683 70.2698 116.991 71.1781C115.3 72.055 113.374 72.4935 111.213 72.4935Z" fill="white"/>
<path d="M135.126 71.9297C132.997 71.9297 131.321 71.319 130.1 70.0976C128.909 68.8761 128.314 67.2162 128.314 65.1178V51.6819H124.18V47.9705H128.314V41.9572H132.636V47.9705H140.858V51.6819H132.636V64.8359C132.636 65.8695 132.918 66.6994 133.482 67.3258C134.077 67.9209 134.891 68.2184 135.925 68.2184H140.764V71.9297H135.126Z" fill="white"/>
<path d="M143.734 71.9297V47.9705H148.103V71.9297H143.734ZM145.942 44.1652C145.128 44.1652 144.439 43.8834 143.875 43.3196C143.311 42.7246 143.029 42.0355 143.029 41.2526C143.029 40.4696 143.311 39.7962 143.875 39.2325C144.439 38.6374 145.128 38.3399 145.942 38.3399C146.725 38.3399 147.398 38.6374 147.962 39.2325C148.557 39.7962 148.855 40.4696 148.855 41.2526C148.855 42.0355 148.557 42.7246 147.962 43.3196C147.398 43.8834 146.725 44.1652 145.942 44.1652Z" fill="white"/>
<path d="M163.854 72.4935C161.411 72.4935 159.235 71.9454 157.324 70.8492C155.445 69.7217 153.957 68.2184 152.861 66.3393C151.796 64.4288 151.264 62.2991 151.264 59.9501C151.264 57.6012 151.796 55.4871 152.861 53.608C153.957 51.6975 155.445 50.1942 157.324 49.098C159.235 47.9705 161.411 47.4068 163.854 47.4068C166.297 47.4068 168.458 47.9705 170.337 49.098C172.248 50.1942 173.735 51.6975 174.8 53.608C175.896 55.4871 176.445 57.6012 176.445 59.9501C176.445 62.2991 175.896 64.4288 174.8 66.3393C173.735 68.2184 172.248 69.7217 170.337 70.8492C168.458 71.9454 166.297 72.4935 163.854 72.4935ZM163.854 68.7821C165.514 68.7821 166.955 68.3907 168.176 67.6077C169.398 66.8247 170.353 65.7755 171.042 64.4601C171.731 63.1134 172.076 61.6101 172.076 59.9501C172.076 58.2902 171.731 56.8025 171.042 55.4871C170.353 54.1404 169.398 53.0756 168.176 52.2926C166.955 51.5096 165.514 51.1181 163.854 51.1181C162.226 51.1181 160.785 51.5096 159.532 52.2926C158.311 53.0756 157.356 54.1404 156.666 55.4871C155.977 56.8025 155.633 58.2902 155.633 59.9501C155.633 61.6101 155.977 63.1134 156.666 64.4601C157.356 65.7755 158.311 66.8247 159.532 67.6077C160.785 68.3907 162.226 68.7821 163.854 68.7821Z" fill="white"/>
<path d="M179.638 71.9297V58.071C179.638 55.9413 180.108 54.0778 181.047 52.4805C182.018 50.8832 183.349 49.6461 185.041 48.7692C186.732 47.8609 188.658 47.4068 190.819 47.4068C193.011 47.4068 194.937 47.8609 196.597 48.7692C198.289 49.6461 199.604 50.8832 200.544 52.4805C201.514 54.0778 202 55.9413 202 58.071V71.9297H197.678V58.118C197.678 56.6773 197.349 55.4402 196.691 54.4066C196.065 53.3418 195.219 52.5275 194.154 51.9637C193.121 51.4 192.009 51.1181 190.819 51.1181C189.629 51.1181 188.501 51.4 187.437 51.9637C186.403 52.5275 185.557 53.3418 184.9 54.4066C184.273 55.4402 183.96 56.6773 183.96 58.118V71.9297H179.638Z" fill="white"/>
<path d="M17.0546 44.4226C14.7369 44.4226 12.6542 43.9215 10.8064 42.9193C8.95855 41.9171 7.48654 40.4764 6.39037 38.5972C5.32552 36.6868 4.79309 34.4005 4.79309 31.7383V9.56433H9.11514V24.1747H9.2091C9.99208 22.7341 11.1509 21.5752 12.6855 20.6983C14.2202 19.7901 15.9114 19.3359 17.7592 19.3359C19.9516 19.3359 21.9247 19.837 23.6786 20.8392C25.4638 21.8415 26.8575 23.2665 27.8597 25.1143C28.8932 26.9308 29.41 29.0919 29.41 31.5974C29.41 34.2282 28.8776 36.5145 27.8127 38.4563C26.7792 40.3668 25.3228 41.8388 23.4437 42.8723C21.5958 43.9058 19.4661 44.4226 17.0546 44.4226ZM17.0546 40.7113C18.5266 40.7113 19.8576 40.3511 21.0478 39.6308C22.2692 38.9104 23.2401 37.8926 23.9604 36.5772C24.6808 35.2617 25.041 33.6958 25.041 31.8793C25.041 30.1254 24.6808 28.5908 23.9604 27.2753C23.2714 25.9599 22.3162 24.9264 21.0947 24.1747C19.9046 23.4231 18.5735 23.0473 17.1015 23.0473C15.6295 23.0473 14.2828 23.4074 13.0614 24.1278C11.8712 24.8481 10.916 25.8816 10.1957 27.2284C9.50663 28.5438 9.16212 30.1097 9.16212 31.9262C9.16212 33.7114 9.50663 35.2617 10.1957 36.5772C10.916 37.8926 11.8712 38.9104 13.0614 39.6308C14.2515 40.3511 15.5826 40.7113 17.0546 40.7113Z" fill="white"/>
<path d="M32.5891 43.8589V19.8997H36.9582V43.8589H32.5891ZM34.7971 16.0944C33.9828 16.0944 33.2938 15.8125 32.7301 15.2488C32.1663 14.6537 31.8845 13.9647 31.8845 13.1817C31.8845 12.3987 32.1663 11.7254 32.7301 11.1616C33.2938 10.5665 33.9828 10.269 34.7971 10.269C35.5801 10.269 36.2535 10.5665 36.8172 11.1616C37.4123 11.7254 37.7098 12.3987 37.7098 13.1817C37.7098 13.9647 37.4123 14.6537 36.8172 15.2488C36.2535 15.8125 35.5801 16.0944 34.7971 16.0944Z" fill="white"/>
<path d="M46.0701 43.8589C44.5963 43.8589 43.3576 43.3421 42.3542 42.3086C41.3507 41.275 40.849 40.0536 40.849 38.6442C40.849 36.7024 41.8054 35.1208 43.7182 33.8994L54.7719 26.8995C55.2422 26.6176 55.5401 26.3358 55.6656 26.0539C55.8223 25.772 55.9007 25.4745 55.9007 25.1613C55.9007 24.7541 55.7439 24.394 55.4304 24.0808C55.1168 23.7676 54.7091 23.611 54.2074 23.611H42.0249V19.8997H55.5244C56.9669 19.8997 58.1742 20.4164 59.1463 21.45C60.1497 22.4522 60.6514 23.6736 60.6514 25.1143C60.6514 27.0561 59.7107 28.6377 57.8292 29.8592L46.7756 36.859C46.3053 37.1409 45.9917 37.4228 45.8349 37.7046C45.7095 37.9865 45.6467 38.284 45.6467 38.5972C45.6467 39.0044 45.8035 39.3646 46.1171 39.6777C46.4307 39.9909 46.854 40.1475 47.3871 40.1475H60.2281V43.8589H46.0701Z" fill="#FC466B"/>
<path d="M46.0697 47.9705C44.596 47.9705 43.3575 48.4873 42.3541 49.5208C41.3507 50.5543 40.849 51.7758 40.849 53.1852C40.849 55.127 41.8053 56.7086 43.7181 57.93L54.771 64.9299C55.2413 65.2117 55.5392 65.4936 55.6646 65.7755C55.8214 66.0574 55.8998 66.3549 55.8998 66.6681C55.8998 67.0752 55.743 67.4354 55.4294 67.7486C55.1159 68.0618 54.7082 68.2184 54.2066 68.2184H42.0248V71.9297H55.5235C56.9659 71.9297 58.1731 71.4129 59.1451 70.3794C60.1485 69.3772 60.6502 68.1557 60.6502 66.7151C60.6502 64.7733 59.7095 63.1917 57.8281 61.9702L46.7752 54.9704C46.3049 54.6885 45.9913 54.4066 45.8346 54.1247C45.7091 53.8429 45.6464 53.5453 45.6464 53.2321C45.6464 52.825 45.8032 52.4648 46.1168 52.1516C46.4303 51.8384 46.8536 51.6818 47.3867 51.6818H60.2269V47.9705H46.0697Z" fill="#FC466B"/>
</g>
<defs>
<linearGradient id="paint0_linear" x1="2.00007" y1="46.391" x2="104" y2="46.391" gradientUnits="userSpaceOnUse">
<stop stop-color="#16BFFD"/>
<stop offset="0.713853" stop-color="#FC466B"/>
</linearGradient>
<clipPath id="clip0">
<rect width="204" height="93" fill="white"/>
</clipPath>
</defs>
</svg>

<svg width="204" height="93" viewBox="0 0 204 93" fill="none" xmlns="http://www.w3.org/2000/svg"><g clip-path="url(#clip0)"><path d="M100.66 72.133V22.044h10.951c5.724 0 10.364 4.64 10.364 10.364V61.77c0 5.723-4.64 10.363-10.364 10.363H100.66z" fill="#FC466B" stroke="#FC466B"/><path d="M3.505 46.369v-.023C3.53 21.66 25.122 1.472 51.995 1.472c13.176 0 25.106 4.865 33.831 12.74l1.005-1.113-1.005 1.113c5.165 4.662 9.622 8.04 16.674 8.681v48.198c-3.053.28-5.691.81-8.178 1.806-2.869 1.147-5.451 2.877-8.21 5.406h0c-8.753 8.03-20.801 13-34.118 13h-.025c-26.11.446-48.864-20.409-48.464-44.934z" stroke="url(#paint0_linear)" stroke-width="3"/><path d="M75.356 72.493c-2.443 0-4.62-.548-6.53-1.644a12.57 12.57 0 01-4.463-4.51c-1.065-1.91-1.597-4.04-1.597-6.389s.532-4.463 1.597-6.342a12.095 12.095 0 014.463-4.51c1.91-1.127 4.087-1.691 6.53-1.691 2.443 0 4.604.564 6.483 1.691a11.652 11.652 0 014.463 4.51c1.096 1.88 1.644 3.993 1.644 6.342 0 2.35-.548 4.479-1.644 6.39-1.065 1.878-2.552 3.382-4.463 4.51-1.879 1.095-4.04 1.644-6.483 1.644zm0-3.71c1.66 0 3.1-.392 4.322-1.175a8.17 8.17 0 002.866-3.148c.689-1.347 1.033-2.85 1.033-4.51 0-1.66-.344-3.148-1.033-4.463-.69-1.347-1.644-2.411-2.866-3.194-1.221-.783-2.662-1.175-4.322-1.175-1.628 0-3.07.392-4.322 1.175-1.221.783-2.177 1.847-2.866 3.194-.689 1.316-1.033 2.803-1.033 4.463 0 1.66.344 3.163 1.033 4.51a8.171 8.171 0 002.866 3.148c1.253.783 2.694 1.174 4.322 1.174zM91.14 71.93V37.635h4.322V71.93H91.14zm20.073.563c-2.192 0-4.134-.438-5.825-1.315a10.348 10.348 0 01-3.947-3.758c-.97-1.597-1.456-3.461-1.456-5.59V47.97h4.322v13.812c0 1.441.313 2.694.94 3.759a6.872 6.872 0 002.537 2.395 7.123 7.123 0 003.382.846 6.953 6.953 0 003.383-.846 6.437 6.437 0 002.536-2.395c.658-1.065.987-2.318.987-3.759V47.971h4.322v13.858c0 2.13-.485 3.994-1.456 5.59-.94 1.598-2.255 2.85-3.947 3.76-1.691.876-3.617 1.314-5.778 1.314zm23.913-.563c-2.129 0-3.805-.611-5.026-1.832-1.191-1.222-1.786-2.882-1.786-4.98V51.682h-4.134V47.97h4.134v-6.013h4.322v6.014h8.222v3.71h-8.222v13.155c0 1.034.282 1.863.846 2.49.595.595 1.409.892 2.443.892h4.839v3.712h-5.638zm8.608 0V47.97h4.369v23.96h-4.369zm2.208-27.765c-.814 0-1.503-.282-2.067-.845-.564-.595-.846-1.285-.846-2.067 0-.783.282-1.457.846-2.02a2.739 2.739 0 012.067-.893c.783 0 1.456.297 2.02.892.595.564.893 1.238.893 2.02 0 .783-.298 1.473-.893 2.068-.564.563-1.237.845-2.02.845zm17.912 28.328c-2.443 0-4.619-.548-6.53-1.644a12.569 12.569 0 01-4.463-4.51c-1.065-1.91-1.597-4.04-1.597-6.389s.532-4.463 1.597-6.342a12.094 12.094 0 014.463-4.51c1.911-1.127 4.087-1.691 6.53-1.691 2.443 0 4.604.564 6.483 1.691a11.65 11.65 0 014.463 4.51c1.096 1.88 1.645 3.993 1.645 6.342 0 2.35-.549 4.479-1.645 6.39-1.065 1.878-2.552 3.382-4.463 4.51-1.879 1.095-4.04 1.644-6.483 1.644zm0-3.71c1.66 0 3.101-.392 4.322-1.175a8.167 8.167 0 002.866-3.148c.689-1.347 1.034-2.85 1.034-4.51 0-1.66-.345-3.148-1.034-4.463-.689-1.347-1.644-2.411-2.866-3.194-1.221-.783-2.662-1.175-4.322-1.175-1.628 0-3.069.392-4.322 1.175-1.221.783-2.176 1.847-2.866 3.194-.689 1.316-1.033 2.803-1.033 4.463 0 1.66.344 3.163 1.033 4.51a8.183 8.183 0 002.866 3.148c1.253.783 2.694 1.174 4.322 1.174zm15.784 3.147V58.07c0-2.13.47-3.993 1.409-5.59.971-1.598 2.302-2.835 3.994-3.712 1.691-.908 3.617-1.362 5.778-1.362 2.192 0 4.118.454 5.778 1.362 1.692.877 3.007 2.114 3.947 3.712.97 1.597 1.456 3.46 1.456 5.59v13.86h-4.322V58.118c0-1.44-.329-2.678-.987-3.711a6.338 6.338 0 00-2.537-2.443 6.855 6.855 0 00-3.335-.846 7.12 7.12 0 00-3.382.846c-1.034.564-1.88 1.378-2.537 2.443-.627 1.033-.94 2.27-.94 3.711V71.93h-4.322zM17.055 44.423c-2.318 0-4.4-.502-6.249-1.504-1.847-1.002-3.32-2.443-4.416-4.322-1.064-1.91-1.597-4.197-1.597-6.859V9.564h4.322v14.61h.094c.783-1.44 1.942-2.599 3.476-3.476 1.535-.908 3.226-1.362 5.074-1.362 2.193 0 4.166.501 5.92 1.503 1.785 1.003 3.179 2.428 4.18 4.275 1.034 1.817 1.551 3.978 1.551 6.483 0 2.631-.532 4.917-1.597 6.86-1.034 1.91-2.49 3.382-4.37 4.415-1.847 1.034-3.977 1.55-6.388 1.55zm0-3.712c1.472 0 2.803-.36 3.993-1.08 1.221-.72 2.192-1.738 2.912-3.054.72-1.315 1.081-2.881 1.081-4.698 0-1.754-.36-3.288-1.08-4.604-.69-1.315-1.645-2.349-2.866-3.1-1.19-.752-2.521-1.128-3.993-1.128-1.473 0-2.82.36-4.04 1.08-1.19.721-2.146 1.755-2.866 3.101-.69 1.316-1.034 2.882-1.034 4.698 0 1.785.345 3.336 1.034 4.651.72 1.316 1.675 2.333 2.865 3.054 1.19.72 2.522 1.08 3.994 1.08zm15.535 3.148v-23.96h4.368v23.96H32.59zm2.207-27.765c-.814 0-1.503-.282-2.067-.845-.564-.595-.845-1.284-.845-2.067 0-.783.281-1.457.845-2.02a2.738 2.738 0 012.067-.893c.783 0 1.457.297 2.02.893.595.563.893 1.237.893 2.02 0 .783-.298 1.472-.893 2.067-.563.563-1.237.845-2.02.845z" fill="#fff"/><path d="M46.07 43.859c-1.474 0-2.712-.517-3.716-1.55-1.003-1.034-1.505-2.255-1.505-3.665 0-1.942.956-3.523 2.87-4.745l11.053-7c.47-.281.768-.563.894-.845a1.81 1.81 0 00.235-.893c0-.407-.157-.767-.47-1.08-.314-.313-.722-.47-1.224-.47H42.025V19.9h13.5c1.442 0 2.65.516 3.621 1.55 1.004 1.002 1.505 2.224 1.505 3.664 0 1.942-.94 3.524-2.822 4.745l-11.053 7c-.47.282-.784.564-.941.846a2.16 2.16 0 00-.188.892c0 .407.157.768.47 1.08.314.314.737.47 1.27.47h12.841v3.712H46.07zm0 4.111c-1.474 0-2.712.517-3.716 1.55-1.003 1.034-1.505 2.256-1.505 3.665 0 1.942.956 3.524 2.87 4.745l11.052 7c.47.282.768.564.894.845.156.282.235.58.235.893 0 .407-.157.767-.47 1.08-.314.314-.722.47-1.223.47H42.025v3.712h13.498c1.443 0 2.65-.517 3.622-1.55 1.003-1.003 1.505-2.224 1.505-3.665 0-1.942-.94-3.523-2.822-4.745l-11.053-7c-.47-.282-.784-.563-.94-.845a2.17 2.17 0 01-.189-.893c0-.407.157-.767.47-1.08.314-.314.738-.47 1.27-.47h12.84V47.97H46.07z" fill="#FC466B"/></g><defs><linearGradient id="paint0_linear" x1="2" y1="46.391" x2="104" y2="46.391" gradientUnits="userSpaceOnUse"><stop stop-color="#16BFFD"/><stop offset=".714" stop-color="#FC466B"/></linearGradient><clipPath id="clip0"><path fill="#fff" d="M0 0h204v93H0z"/></clipPath></defs></svg>
